!!!!SEGMENT: pl-sa--555-a-ix-35--001_anonim--marsz.krn
!!!id: 18xx:581
!!!COM: Anonim
!!!COM-rism: pe30004985
!!!CDT:
!!!CNT:
!!!OTL: Marsz
!!!PDT:
!!!SMS-siglum: PL-SA
!!!SMS-shelfmark: 555/A IX 35
!!!NIFC-rismID: 1001065392
!!!URL-scan: http://bc.bdsandomierz.pl/dlibra/publication/1311/edition/1279/content
!!!ONB-nifc: Str. 1
!!!SMS-variant:
!!!SMS-altvar:
**kern	**kern
*part1	*part1
*staff2	*staff1
*I"Pianoforte	*
*I'P-no	*
*clefF4	*clefG2
*k[]	*k[]
*M2/4	*M2/4
*A,A,B,B,C,C,D,D	*
*A	*A
!	!LO:TX:rj:a:t=Marsz
8r	8gg\
=1	=1
2r	16ff#X\LL
.	16gg\
.	16aa\
.	16gg\JJ
.	16ffn\LL
.	16ee\
.	16ff\
.	16dd\JJ
=2	=2
8G\L 8E\ 8C\	8ccT\L
8G\ 8E\ 8C\	8cc\
8G\J 8E\ 8C\	8cc\
8r	8g\J
=3	=3
8E\L 8C\	8.cc\L
8G\	.
.	16dd\Jk
8E\ 8C\	16ee\LL
.	16ff\
8G\J	16gg\
.	16ee\JJ
=4	=4
8G\L 8D\ 8BB\	8dd\L
8G\ 8D\ 8BB\	8dd\
8G\J 8D\ 8BB\	8dd\
8r	8gg\J
=5	=5
2r	16ff#X\LL
.	16gg\
.	16aa\
.	16gg\JJ
.	16ffn\LL
.	16ee\
.	16ff\
.	16dd\JJ
=6	=6
8E\L 8C\	8cc\L
8G\J	16ee\L
.	16gg\JJ
8E\L 8C\	4ccc\
8G\J	.
=7	=7
8D\L 8BB\	16dd\LL
.	16ee\
8G\J	16ff\
.	16dd\JJ
8D\L 8BB\	16b\LL
.	16cc\
8G\J	16dd\
.	16b\JJ
=8	=8
8G\L 8E\ 8C\	8cc\L
8G\ 8E\ 8C\	8cc\
8G\J 8E\ 8C\	8cc\J
8r	8r
*B	*B
=9:|!|:	=9:|!|:
4A\	4aa\
4E\	4ee\
=10	=10
8c\L	8ccc\L
8c\J	8ccc\J
4A\	4aa\
=11	=11
4F\	4ff\
8D\L	8dd\L
8D\J	8dd\J
!!LO:LB:g=original
=12	=12
8BB\L	8b\L
8BB\J	8b\J
8D;\	8dd;\
8r	16r
.	16g/
=13	=13
8E\L 8C\	8cc\L
8G\J	16cc\L
.	16dd\JJ
*rep	*
8E\L 8C\	8ee\L
8G\J	16ee\L
.	16ff\JJ
*Xrep	*
=14	=14
8E\L 8C\	16ff#X\LL
.	16gg\
8G\J	16aa\
.	16gg\JJ
*rep	*
8E\L 8C\	16ffn\LL
.	16ee\
8G\J	16dd\
.	16cc\JJ
*Xrep	*
=15	=15
8D\L 8BB\	16dd\LL
.	16ee\
8G\J	16ff\
.	16dd\JJ
*rep	*
8D\L 8BB\	16b\LL
.	16cc\
8G\J	16dd\
.	16b\JJ
*Xrep	*
=16	=16
4E\ 4C\	16cc\LL
.	16ccc\
.	16bb\
.	16aa\JJ
4r	16gg\LL
.	16ff\
.	16ee\
.	16dd\JJ
=17	=17
8E\L 8C\	8cc\L
8G\J	16cc\L
.	16dd\JJ
*rep	*
8E\L 8C\	8ee\L
8G\J	16ee\L
.	16ff\JJ
*Xrep	*
=18	=18
8E\L 8C\	16ff#X\LL
.	16gg\
8G\J	16aa\
.	16gg\JJ
*rep	*
8E\L 8C\	16ffn\LL
.	16ee\
8G\J	16dd\
.	16cc\JJ
*Xrep	*
=19	=19
8D\L 8BB\	16dd\LL
.	16ee\
8G\J	16ff\
.	16dd\JJ
*rep	*
8D\L 8BB\	16b\LL
.	16cc\
8G\J	16dd\
.	16b\JJ
*Xrep	*
=20	=20
8E\L 8C\	8cc\L
8G\	8cc\
8E\J 8C;\	8cc;\J
8r	8r
!!LO:LB:g=original
*C	*C
=21:|!|:	=21:|!|:
!	!LO:TX:a:t=Trio
8A\L 8F\	16aa\LL
.	16gg\
8c\J	16ff\
.	16ee\JJ
*rep	*
8A\L 8F\	16ff\LL
.	16aa\
8c\J	16ccc\
.	16bb-X\JJ
*Xrep	*
=22	=22
8A\L 8F\	16aa\LL
.	16gg\
8c\J	16ff\
.	16ee\JJ
*rep	*
8A\L 8F\	16ff\LL
.	16aa\
8c\J	16ccc\
.	16aa\JJ
*Xrep	*
=23	=23
8G\L 8E\	16bb-X\LL
.	16gg\
8c\J	16ee\
.	16cc\JJ
*rep	*
8G\L 8E\	16bb-\LL
.	16gg\
8c\J	16ee\
.	16cc\JJ
*Xrep	*
=24	=24
4A\ 4F\	16ff\LL
.	16gg\
.	16aa\
.	16bb-X\JJ
4r	16ccc\LL
.	16ddd\
.	16eee\
.	16fff\JJ
=25	=25
8A\L 8F\	16gg\LL
.	16ff\
8c\J	16ee\
.	16ff\JJ
*rep	*
8A\L 8F\	16ff\LL
.	16aa\
8c\J	16ccc\
.	16aa\JJ
*Xrep	*
=26	=26
8A\L 8F\	16gg\LL
.	16ff\
8c\J	16ee\
.	16ff\JJ
*rep	*
8A\L 8F\	16ff\LL
.	16aa\
8c\J	16ccc\
.	16aa\JJ
*Xrep	*
=27	=27
8G\L 8E\	16bb-X\LL
.	16gg\
8c\J	16ee\
.	16cc\JJ
*rep	*
8G\L 8E\	16bb-\LL
.	16gg\
8c\J	16ee\
.	16cc\JJ
*Xrep	*
=	=
8A\L 8F\	8ff\L
8A\ 8F\	8ff\
8A\J 8F;\	8ff;\J
!!LO:LB:g=original
*D	*D
=28:|!|:	=28:|!|:
8r	16gg\LL
.	16ee\JJ
=29	=29
8G\L 8E\ 8C\	8cc\L
8G\ 8E\ 8C\	8cc\J
8G\J 8E\ 8C\	8ccT\L
8r	16aa\L
.	16ff\JJ
=30	=30
8G\L 8D\ 8BB\	8dd\L
8G\ 8D\ 8BB\	8dd\J
8G\J 8D\ 8BB\	8ddT\L
8r	16ff\L
.	16dd\JJ
=31	=31
8G\L 8D\ 8BB\	8b\L
8G\ 8D\ 8BB\	8b\J
8G\J 8D\ 8BB\	8bt\L
8r	16gg\L
.	16ee\JJ
=32	=32
8G\L 8E\ 8C\	8cc\L
8G\ 8E\ 8C\	8cc\
8G\J 8E\ 8C;\	8cc;\J
!	!LO:TX:a:t=Trio Da Capo
=:|!	=:|!
*-	*-
!!!system-decoration: s1,s2
!!!EED: Leszek Kubiak
!!!EST: 2020-12-10
!!!ENC: Tomasz Grochalski
!!!END: 2020-06-12
